src/app/static/images/tasf-logo.svg

<svg fill="none" height="27" viewBox="0 0 67 27" width="67" xmlns="http://www.w3.org/2000/svg" xmlns:xlink="http://www.w3.org/1999/xlink"><linearGradient id="a" gradientUnits="userSpaceOnUse" x1="1.6884" x2="26.8" y1="25.1116" y2=".000016"><stop offset="0" stop-color="#0d198b"/><stop offset="1" stop-color="#162cf1"/></linearGradient><linearGradient id="b" gradientUnits="userSpaceOnUse" x1="31.3024" x2="54.9132" y1="3.4304" y2="27.0412"><stop offset="0" stop-color="#444"/><stop offset="1" stop-color="#101010"/></linearGradient><path d="m.00000021 4.86913h14.90709979l-14.90709914 14.78327.00000028 6.4105 26.06279886-26.0629-26.0628.00000114z" fill="url(#a)"/><path d="m21.9309 26.8v-14.9071l-14.7833 14.9071h-6.410443l26.062843-26.062816v26.062816z" fill="url(#a)"/><g fill="url(#b)"><path d="m67 5.00684h-15.3288l15.3288 15.20146v6.5917l-26.8-26.8 26.8.00000117z"/><path d="m66.9731 13.6144h-6.6944l6.7139 6.5865.0074 6.5992-18.1925-18.19254h18.1656z"/><path clip-rule="evenodd" d="m43.4877 4.52044-4.5204-4.52044-.6012.00002617c-4.3242 0-7.8566 3.50559383-7.8566 7.83005383 0 4.31552 3.4909 7.81562 7.8028 7.83012h6.8649c1.8154.0146 3.2826 1.4908 3.2826 3.3097 0 1.7945-1.4282 3.2555-3.2099 3.3082h-17.3779v4.5219h17.3779c4.3032-.0248 7.784-3.5209 7.784-7.8301s-3.4808-7.8054-7.784-7.83h-6.9376v-.0011c-1.7905-.0429-3.2288-1.50783-3.2288-3.30872 0-1.81889 1.4672-3.29509 3.2826-3.30964z" fill-rule="evenodd"/></g></svg>

<svg width="67" height="27" viewBox="0 0 67 27" fill="none" xmlns="http://www.w3.org/2000/svg">
<path d="M2.1306e-07 4.86913H14.9071L8.59936e-07 19.6524L1.14044e-06 26.0629L26.0628 0L0 1.13805e-06L2.1306e-07 4.86913Z" fill="url(#paint0_linear_249_224)"/>
<path d="M21.9309 26.8V11.8929L7.1476 26.8L0.737157 26.8L26.8 0.737184L26.8 26.8H21.9309Z" fill="url(#paint1_linear_249_224)"/>
<path d="M67 5.00684H51.6712L67 20.2083V26.8L40.2 0L67 1.17024e-06V5.00684Z" fill="url(#paint2_linear_249_224)"/>
<path d="M66.9731 13.6144H60.2787L66.9926 20.2009L67 26.8001L48.8075 8.60756L66.9731 8.60756V13.6144Z" fill="url(#paint3_linear_249_224)"/>
<path fill-rule="evenodd" clip-rule="evenodd" d="M43.4877 4.52044L38.9673 0L38.3661 2.61719e-05C34.0419 2.61719e-05 30.5095 3.50562 30.5095 7.83008C30.5095 12.1456 34.0004 15.6457 38.3123 15.6602H45.1772C46.9926 15.6748 48.4598 17.151 48.4598 18.9699C48.4598 20.7644 47.0316 22.2254 45.2499 22.2781H27.872V26.8H45.2499C49.5531 26.7752 53.0339 23.2791 53.0339 18.9699C53.0339 14.6607 49.5531 11.1645 45.2499 11.1399H38.3123V11.1388C36.5218 11.0959 35.0835 9.63097 35.0835 7.83008C35.0835 6.01119 36.5507 4.53499 38.3661 4.52044H43.4877Z" fill="url(#paint4_linear_249_224)"/>
<defs>
<linearGradient id="paint0_linear_249_224" x1="1.6884" y1="25.1116" x2="26.8" y2="1.61568e-05" gradientUnits="userSpaceOnUse">
<stop stop-color="#0D198B"/>
<stop offset="1" stop-color="#162CF1"/>
</linearGradient>
<linearGradient id="paint1_linear_249_224" x1="1.6884" y1="25.1116" x2="26.8" y2="1.61568e-05" gradientUnits="userSpaceOnUse">
<stop stop-color="#0D198B"/>
<stop offset="1" stop-color="#162CF1"/>
</linearGradient>
<linearGradient id="paint2_linear_249_224" x1="31.3024" y1="3.4304" x2="54.9132" y2="27.0412" gradientUnits="userSpaceOnUse">
<stop stop-color="#444444"/>
<stop offset="1" stop-color="#101010"/>
</linearGradient>
<linearGradient id="paint3_linear_249_224" x1="31.3024" y1="3.4304" x2="54.9132" y2="27.0412" gradientUnits="userSpaceOnUse">
<stop stop-color="#444444"/>
<stop offset="1" stop-color="#101010"/>
</linearGradient>
<linearGradient id="paint4_linear_249_224" x1="31.3024" y1="3.4304" x2="54.9132" y2="27.0412" gradientUnits="userSpaceOnUse">
<stop stop-color="#444444"/>
<stop offset="1" stop-color="#101010"/>
</linearGradient>
</defs>
</svg>
